img/payment_kakao.svg

<svg width="103" height="36" viewBox="0 0 103 36" fill="none" xmlns="http://www.w3.org/2000/svg">
<path fill-rule="evenodd" clip-rule="evenodd" d="M24 22.0303H25.1647V12L24 12.2522V22.0303ZM29.1951 15.5811L28.2781 14.9231L25.5888 18.4469L28.6518 22.1931L29.5505 21.5053L26.9552 18.3919L29.1951 15.5811ZM30.5736 19.2889C30.4516 19.568 30.3979 19.8722 30.4171 20.1763L30.4194 20.1717C30.3955 20.4369 30.4301 20.7041 30.5209 20.9545C30.6116 21.2048 30.7562 21.4322 30.9445 21.6205C31.1328 21.8088 31.3602 21.9534 31.6106 22.0442C31.8609 22.1349 32.1281 22.1696 32.3934 22.1456C32.7774 22.1399 33.1569 22.0622 33.5122 21.9164C33.9123 21.76 34.2858 21.5427 34.6195 21.2721L34.7594 22.031H35.6191V17.5971C35.6191 15.8501 34.8006 14.9766 33.1637 14.9766C32.7687 14.9787 32.3757 15.0319 31.9944 15.1348C31.6029 15.2398 31.2262 15.3939 30.8733 15.5933L31.2149 16.4163C31.5108 16.2843 31.8176 16.1784 32.132 16.1C32.4434 16.0183 32.7638 15.9759 33.0857 15.9739C34.0318 15.9739 34.5049 16.5088 34.5049 17.5787V18.0212H33.1614C32.2673 18.0212 31.5863 18.2046 31.1186 18.5714C30.8825 18.7638 30.6956 19.0098 30.5736 19.2889ZM33.0926 21.1506C32.929 21.1908 32.7613 21.2116 32.5928 21.2125H32.5859C31.8737 21.2141 31.5176 20.8511 31.5176 20.1235C31.5016 19.935 31.5318 19.7454 31.6057 19.5712C31.6797 19.397 31.795 19.2435 31.9417 19.1239C32.229 18.913 32.6784 18.8076 33.2898 18.8076H34.5049V20.4285C34.3791 20.5435 34.2433 20.6471 34.0991 20.738C33.9451 20.8368 33.7815 20.9197 33.6107 20.9856C33.4415 21.051 33.2685 21.1061 33.0926 21.1506ZM39.0718 22.0303H37.9072V12.2522L39.0718 12V22.0303ZM42.1852 14.9231L43.1023 15.5811L40.8624 18.3919L43.4553 21.5053L42.5566 22.1931L39.4937 18.4469L42.1852 14.9231ZM44.4807 19.2889C44.3587 19.568 44.3051 19.8722 44.3242 20.1763L44.3174 20.1717C44.2935 20.4369 44.3281 20.7041 44.4188 20.9545C44.5096 21.2048 44.6542 21.4322 44.8425 21.6205C45.0308 21.8088 45.2582 21.9534 45.5085 22.0442C45.7589 22.1349 46.0261 22.1696 46.2913 22.1456C46.6761 22.1402 47.0564 22.0624 47.4124 21.9164C47.8125 21.76 48.1861 21.5427 48.5198 21.2721L48.6596 22.031H49.5194V17.5971C49.5194 15.8501 48.7009 14.9766 47.0639 14.9766C46.6682 14.9785 46.2745 15.0317 45.8924 15.1348C45.5018 15.2402 45.1259 15.3943 44.7736 15.5933L45.1152 16.4163C45.411 16.2841 45.7179 16.1782 46.0323 16.1C46.3444 16.0182 46.6656 15.9758 46.9883 15.9739C47.9329 15.9739 48.4051 16.5088 48.4051 17.5787V18.0212H47.0708C46.1782 18.0212 45.4965 18.2046 45.0258 18.5714C44.7896 18.7638 44.6027 19.0098 44.4807 19.2889ZM47.002 21.1506C46.8384 21.1906 46.6707 21.2113 46.5023 21.2125C45.7839 21.2141 45.4224 20.8503 45.4178 20.1212C45.4024 19.9327 45.433 19.7433 45.5068 19.5692C45.5807 19.3951 45.6957 19.2415 45.842 19.1217C46.1293 18.9107 46.5787 18.8053 47.19 18.8053H48.4051V20.4262C48.2825 20.5427 48.149 20.6472 48.0062 20.738C47.8528 20.8363 47.69 20.9192 47.5202 20.9856C47.3508 21.0506 47.1778 21.1057 47.002 21.1506ZM54.499 14.9995C55.4619 14.9995 56.2169 15.3113 56.7641 15.9349C57.3113 16.5585 57.5856 17.4534 57.5872 18.6196C57.5872 19.7659 57.3151 20.647 56.771 21.263C56.2269 21.8789 55.4695 22.1846 54.499 22.18C53.5376 22.18 52.7826 21.8743 52.2339 21.263C51.6852 20.6516 51.4108 19.7705 51.4108 18.6196C51.4108 17.4549 51.6874 16.56 52.2407 15.9349C52.5247 15.6219 52.8745 15.3756 53.2649 15.2139C53.6554 15.0522 54.0768 14.9789 54.499 14.9995ZM54.499 15.9349C54.2268 15.9226 53.956 15.9791 53.7115 16.0994C53.467 16.2196 53.2569 16.3996 53.1005 16.6227C52.7764 17.0812 52.6144 17.7484 52.6144 18.6241C52.6144 19.4999 52.7764 20.1556 53.1005 20.5912C53.271 20.799 53.4855 20.9664 53.7285 21.0814C53.9716 21.1963 54.237 21.2559 54.5059 21.2559C54.7747 21.2559 55.0402 21.1963 55.2832 21.0814C55.5262 20.9664 55.7407 20.799 55.9112 20.5912C56.2337 20.1495 56.3958 19.4938 56.3973 18.6241C56.3988 17.7545 56.2368 17.0873 55.9112 16.6227C55.7527 16.3985 55.5401 16.2179 55.2933 16.0977C55.0464 15.9775 54.7732 15.9215 54.499 15.9349ZM61.1568 24.6916V22.0986C61.505 22.1876 61.8635 22.23 62.2229 22.2247C64.1212 22.2247 65.4486 20.7574 65.4486 18.4648C65.4624 16.2753 64.6026 14.9204 62.7915 14.9204C62.4282 14.9136 62.0674 14.9822 61.732 15.1219C61.3966 15.2615 61.0938 15.4693 60.8427 15.732L60.6135 15.1244H59.3089V24.6916H61.1568ZM61.1568 20.8079V16.6674C61.479 16.5068 61.8331 16.4206 62.1931 16.4152C63.2431 16.4152 63.5847 17.1878 63.5847 18.4648C63.5847 19.9275 63.0689 20.8446 61.7506 20.8446C61.5522 20.8427 61.354 20.8304 61.1568 20.8079ZM69.4722 17.8217H70.5222V17.5925C70.5222 16.8336 70.0912 16.4782 69.3438 16.4782C68.6857 16.4946 68.0386 16.6509 67.4455 16.9368L66.9388 15.6964C67.7056 15.2018 68.5965 14.934 69.5089 14.9238C71.2811 14.9238 72.244 15.8615 72.244 17.6452V22.031H70.9395L70.7492 21.4487C70.0018 21.992 69.3186 22.2213 68.6996 22.2213C67.3446 22.2213 66.5858 21.412 66.5858 20.0433C66.5858 18.5921 67.5991 17.8217 69.4722 17.8217ZM70.5222 20.2634V18.9978H69.674C68.7248 18.9978 68.2433 19.3395 68.2433 20.0227C68.2433 20.5431 68.5093 20.7953 69.0526 20.7953C69.5862 20.7767 70.1004 20.5906 70.5222 20.2634ZM75.2932 24.9944C76.4189 24.3067 77.1915 23.048 77.838 21.3262L80 15.37L78.1888 14.8633L76.6321 20.3175L75.0639 14.8885L73.2298 15.3814L75.6784 22.0713C75.2907 22.7868 74.7711 23.4223 74.1469 23.9444L75.2932 24.9944Z" fill="#797979"/>
<path d="M6 1H97V-1H6V1ZM102 6V30H104V6H102ZM97 35H6V37H97V35ZM1 30V6H-1V30H1ZM6 35C3.23858 35 1 32.7614 1 30H-1C-1 33.866 2.13401 37 6 37V35ZM102 30C102 32.7614 99.7614 35 97 35V37C100.866 37 104 33.866 104 30H102ZM97 1C99.7614 1 102 3.23858 102 6H104C104 2.13401 100.866 -1 97 -1V1ZM6 -1C2.13401 -1 -1 2.13401 -1 6H1C1 3.23858 3.23858 1 6 1V-1Z" fill="#E2E2E2"/>
</svg>

<?xml version="1.0" encoding="utf-8"?>
<!-- Generator: Adobe Illustrator 26.3.1, SVG Export Plug-In . SVG Version: 6.00 Build 0)  -->
<svg version="1.1" id="레이어_1" xmlns="http://www.w3.org/2000/svg" xmlns:xlink="http://www.w3.org/1999/xlink" x="0px"
	 y="0px" viewBox="0 0 103 36" style="enable-background:new 0 0 103 36;" xml:space="preserve">
<style type="text/css">
	.st0{fill-rule:evenodd;clip-rule:evenodd;fill:#797979;}
</style>
<path class="st0" d="M24,22.03h1.16V12L24,12.25V22.03z M29.2,15.58l-0.92-0.66l-2.69,3.52l3.06,3.75l0.9-0.69l-2.6-3.11L29.2,15.58
	z M30.57,19.29c-0.12,0.28-0.18,0.58-0.16,0.89l0,0c-0.02,0.27,0.01,0.53,0.1,0.78c0.09,0.25,0.24,0.48,0.42,0.67
	c0.19,0.19,0.42,0.33,0.67,0.42c0.25,0.09,0.52,0.13,0.78,0.1c0.38-0.01,0.76-0.08,1.12-0.23c0.4-0.16,0.77-0.37,1.11-0.64
	l0.14,0.76h0.86V17.6c0-1.75-0.82-2.62-2.46-2.62c-0.4,0-0.79,0.06-1.17,0.16c-0.39,0.11-0.77,0.26-1.12,0.46l0.34,0.82
	c0.3-0.13,0.6-0.24,0.92-0.32c0.31-0.08,0.63-0.12,0.95-0.13c0.95,0,1.42,0.53,1.42,1.6v0.44h-1.34c-0.89,0-1.58,0.18-2.04,0.55
	C30.88,18.76,30.7,19.01,30.57,19.29z M33.09,21.15c-0.16,0.04-0.33,0.06-0.5,0.06h-0.01c-0.71,0-1.07-0.36-1.07-1.09
	c-0.02-0.19,0.01-0.38,0.09-0.55c0.07-0.17,0.19-0.33,0.34-0.45c0.29-0.21,0.74-0.32,1.35-0.32h1.22v1.62
	c-0.13,0.12-0.26,0.22-0.41,0.31c-0.15,0.1-0.32,0.18-0.49,0.25C33.44,21.05,33.27,21.11,33.09,21.15z M39.07,22.03h-1.16v-9.78
	L39.07,12V22.03z M42.19,14.92l0.92,0.66l-2.24,2.81l2.59,3.11l-0.9,0.69l-3.06-3.75L42.19,14.92z M44.48,19.29
	c-0.12,0.28-0.18,0.58-0.16,0.89l-0.01,0c-0.02,0.27,0.01,0.53,0.1,0.78c0.09,0.25,0.24,0.48,0.42,0.67
	c0.19,0.19,0.42,0.33,0.67,0.42c0.25,0.09,0.52,0.13,0.78,0.1c0.38-0.01,0.77-0.08,1.12-0.23c0.4-0.16,0.77-0.37,1.11-0.64
	l0.14,0.76h0.86V17.6c0-1.75-0.82-2.62-2.46-2.62c-0.4,0-0.79,0.06-1.17,0.16c-0.39,0.11-0.77,0.26-1.12,0.46l0.34,0.82
	c0.3-0.13,0.6-0.24,0.92-0.32c0.31-0.08,0.63-0.12,0.96-0.13c0.94,0,1.42,0.53,1.42,1.6v0.44h-1.33c-0.89,0-1.57,0.18-2.05,0.55
	C44.79,18.76,44.6,19.01,44.48,19.29z M47,21.15c-0.16,0.04-0.33,0.06-0.5,0.06c-0.72,0-1.08-0.36-1.08-1.09
	c-0.02-0.19,0.02-0.38,0.09-0.55c0.07-0.17,0.19-0.33,0.34-0.45c0.29-0.21,0.74-0.32,1.35-0.32h1.22v1.62
	c-0.12,0.12-0.26,0.22-0.4,0.31c-0.15,0.1-0.32,0.18-0.49,0.25C47.35,21.05,47.18,21.11,47,21.15z M54.5,15
	c0.96,0,1.72,0.31,2.27,0.94c0.55,0.62,0.82,1.52,0.82,2.68c0,1.15-0.27,2.03-0.82,2.64c-0.54,0.62-1.3,0.92-2.27,0.92
	c-0.96,0-1.72-0.31-2.27-0.92c-0.55-0.61-0.82-1.49-0.82-2.64c0-1.16,0.28-2.06,0.83-2.68c0.28-0.31,0.63-0.56,1.02-0.72
	C53.66,15.05,54.08,14.98,54.5,15z M54.5,15.93c-0.27-0.01-0.54,0.04-0.79,0.16c-0.24,0.12-0.45,0.3-0.61,0.52
	c-0.32,0.46-0.49,1.13-0.49,2c0,0.88,0.16,1.53,0.49,1.97c0.17,0.21,0.39,0.38,0.63,0.49c0.24,0.11,0.51,0.17,0.78,0.17
	c0.27,0,0.53-0.06,0.78-0.17c0.24-0.11,0.46-0.28,0.63-0.49c0.32-0.44,0.48-1.1,0.49-1.97c0-0.87-0.16-1.54-0.49-2
	c-0.16-0.22-0.37-0.4-0.62-0.52C55.05,15.98,54.77,15.92,54.5,15.93z M61.16,24.69V22.1c0.35,0.09,0.71,0.13,1.07,0.13
	c1.9,0,3.23-1.47,3.23-3.76c0.01-2.19-0.85-3.54-2.66-3.54c-0.36-0.01-0.72,0.06-1.06,0.2c-0.34,0.14-0.64,0.35-0.89,0.61
	l-0.23-0.61h-1.3v9.57H61.16z M61.16,20.81v-4.14c0.32-0.16,0.68-0.25,1.04-0.25c1.05,0,1.39,0.77,1.39,2.05
	c0,1.46-0.52,2.38-1.83,2.38C61.55,20.84,61.35,20.83,61.16,20.81z M69.47,17.82h1.05v-0.23c0-0.76-0.43-1.11-1.18-1.11
	c-0.66,0.02-1.31,0.17-1.9,0.46l-0.51-1.24c0.77-0.49,1.66-0.76,2.57-0.77c1.77,0,2.74,0.94,2.74,2.72v4.39h-1.3l-0.19-0.58
	c-0.75,0.54-1.43,0.77-2.05,0.77c-1.36,0-2.11-0.81-2.11-2.18C66.59,18.59,67.6,17.82,69.47,17.82z M70.52,20.26V19h-0.85
	c-0.95,0-1.43,0.34-1.43,1.02c0,0.52,0.27,0.77,0.81,0.77C69.59,20.78,70.1,20.59,70.52,20.26z M75.29,24.99
	c1.13-0.69,1.9-1.95,2.54-3.67L80,15.37l-1.81-0.51l-1.56,5.45l-1.57-5.43l-1.83,0.49l2.45,6.69c-0.39,0.72-0.91,1.35-1.53,1.87
	L75.29,24.99z"/>
</svg>
